X:1
T:Waratah, LM
T:Waratah, LM
T:Moses Smith Cross (1854-1911)
T:Public Domain Courtesy of the Cyber Hymnal™
C:Moses Smith Cross (1854-1911)
Z:Public Domain
Z:Courtesy of the Cyber Hymnal™
%%score ( 1 2 ) ( 3 4 )
L:1/8
M:3/4
K:A
V:1 treble 
V:2 treble 
V:3 bass 
V:4 bass 
V:1
 [Ec]2 [DB]2 [CA]2 | [CE]4 [A,C]2 | [CE]4 [B,D]2 | [A,C]6 | [A,C]2 [CG]2 [CF]2 | [B,E]4 [B,E]2 | %6
 (^D2 E2) [DF]2 | F4 E2 | [CE]2 [EA]2 [EB]2 | [Ec]4 [EA]2 | (c2 d2) [Ee]2 | (e2 d2) [Ec]2 | %12
 (B2 A2) [B,F]2 | [CE]4 [A,C]2 | [CE]4 [B,D]2 | [A,C]6 |] %16
V:2
 x6 | x6 | x6 | x6 | x6 | x6 | B,4 x2 | D6 | x6 | x6 | E4 x2 | F4 x2 | ^D4 x2 | x6 | x6 | x6 |] %16
V:3
 [A,,A,]2 [A,,E,]2 [A,,E,]2 | [A,,A,]4 [A,,E,]2 | (A,2 F,2) [E,G,]2 | (A,2 E,4) | %4
 [A,,F,]2 [A,,B,]2 [A,,A,]2 | [B,,G,]4 [B,,G,]2 | (F,2 G,2) [B,,A,]2 | [E,G,]6 | %8
 [A,,A,]2 [C,A,]2 [E,G,]2 | A,4 [A,C]2 | ([A,,A,]2 [B,,G,]2) [C,=G,]2 | (F,2 A,2) [F,^A,]2 | %12
 [D,B,]4 [^D,A,]2 | [E,A,]4 E,2 | (A,2 F,2) [E,G,]2 | [A,,A,]6 |] %16
V:4
 x6 | x6 | E,4 x2 | A,,6 | x6 | x6 | B,,4 x2 | x6 | x6 | x6 | x6 | D,4 x2 | x6 | x6 | E,4 x2 | %15
 x6 |] %16

